icons/1_Primary/System76.svg

<svg width="1024" height="1024" viewBox="0 0 1024 1024" fill="none" xmlns="http://www.w3.org/2000/svg">
<g clip-path="url(#clip0_2_3594)">
<path d="M512 1024C794.77 1024 1024 794.77 1024 512C1024 229.23 794.77 0 512 0C229.23 0 0 229.23 0 512C0 794.77 229.23 1024 512 1024Z" fill="#56595B"/>
<path d="M774.43 401.24C753.44 351.814 718.983 309.281 674.99 278.49L675.02 278.52L675.11 278.58L674.3 281.02C668.85 291.15 607.42 402.24 584.29 444.05L583.17 446.07C578.57 454.38 575.49 459.96 575.36 460.19C557.48 491.06 549.28 525.8 553.41 553.14C555.508 567.02 560.842 580.212 568.98 591.65C576.07 601.621 585.062 610.091 595.438 616.573C605.814 623.055 617.37 627.421 629.44 629.42C634.779 630.323 640.185 630.778 645.6 630.78C666.15 630.85 686.16 624.22 702.6 611.88C721.241 598.068 733.818 577.583 737.7 554.71C741.76 530.56 735.87 506.21 721.1 486.15C706.362 466.143 684.383 452.694 659.86 448.68C658.49 448.45 657.08 448.24 655.67 448.07C647.07 446.99 640.69 439.54 640.96 430.88C641.05 426.26 643.07 421.89 646.53 418.83C650.13 415.66 654.91 414.16 659.68 414.71C661.57 414.94 663.5 415.23 665.43 415.55C699.06 421.21 728.55 439.33 748.45 466.57C768.45 493.94 776.4 527.23 770.84 560.3C765.28 593.37 746.87 622.22 719.01 641.54C697.463 656.494 671.847 664.476 645.62 664.41C641.81 664.41 637.97 664.24 634.2 663.91C630.77 663.61 627.29 663.16 623.86 662.58C607.366 659.867 591.576 653.9 577.411 645.026C563.245 636.152 550.987 624.548 541.35 610.89C537.57 605.55 534.19 599.95 531.23 594.11C514.19 560.46 513.36 521.15 528.82 480.41C534.11 466.47 540.59 453.02 546.82 440.56L643.63 263.69L646.01 260.81L646.11 260.86L646.14 260.8C638.59 256.77 630.84 253.07 622.9 249.71C478.09 188.42 311.01 256.13 249.72 400.95C204.5 507.81 228.64 631.41 310.75 713.4C311.69 714.34 312.63 715.27 313.58 716.19L468.52 428.94H303.12L332.11 477.76C334.29 481.26 334.95 485.49 333.94 489.49C333.045 492.948 331.032 496.013 328.214 498.209C325.396 500.404 321.932 501.607 318.36 501.63C313.07 501.68 308.13 498.98 305.33 494.49L262.06 421.66C260.528 419.202 259.734 416.356 259.77 413.46V412.83C260.05 404.5 266.83 397.87 275.16 397.79H494.89C498.88 397.79 503.72 399.23 506.14 401.14L506.37 401.31C513.53 406.44 515.78 416.09 511.62 423.86L343.85 735.02C342.98 736.63 341.86 738.1 340.54 739.37C439.9 814.48 576.56 816.22 677.8 743.67H544.39C534.63 743.67 526.72 735.76 526.72 726V725.64C526.72 715.88 534.63 707.97 544.39 707.97H718.7C796.49 625.85 818.36 505.5 774.44 401.26L774.43 401.24Z" fill="white"/>
</g>
<defs>
<clipPath id="clip0_2_3594">
<rect width="1024" height="1024" fill="white"/>
</clipPath>
</defs>
</svg>

<svg xmlns="http://www.w3.org/2000/svg" width="1024" height="1024" fill="none">
   <g clip-path="url(#a)">
      <path fill="#56595B" d="M512 1024c282.77 0 512-229.23 512-512S794.77 0 512 0 0 229.23 0 512s229.23 512 512 512Z"/>
      <path fill="#fff" d="M774.43 401.24a286.547 286.547 0 0 0-99.44-122.75l.03.03.09.06-.81 2.44c-5.45 10.13-66.88 121.22-90.01 163.03l-1.12 2.02c-4.6 8.31-7.68 13.89-7.81 14.12-17.88 30.87-26.08 65.61-21.95 92.95a89.502 89.502 0 0 0 15.57 38.51 92.785 92.785 0 0 0 60.46 37.77 97.123 97.123 0 0 0 16.16 1.36c20.55.07 40.56-6.56 57-18.9a89.868 89.868 0 0 0 35.1-57.17c4.06-24.15-1.83-48.5-16.6-68.56a95.153 95.153 0 0 0-61.24-37.47c-1.37-.23-2.78-.44-4.19-.61-8.6-1.08-14.98-8.53-14.71-17.19.09-4.62 2.11-8.99 5.57-12.05 3.6-3.17 8.38-4.67 13.15-4.12 1.89.23 3.82.52 5.75.84 33.63 5.66 63.12 23.78 83.02 51.02 20 27.37 27.95 60.66 22.39 93.73-5.56 33.07-23.97 61.92-51.83 81.24a128.152 128.152 0 0 1-73.39 22.87c-3.81 0-7.65-.17-11.42-.5-3.43-.3-6.91-.75-10.34-1.33a126.018 126.018 0 0 1-82.51-51.69c-3.78-5.34-7.16-10.94-10.12-16.78-17.04-33.65-17.87-72.96-2.41-113.7 5.29-13.94 11.77-27.39 18-39.85l96.81-176.87 2.38-2.88.1.05.03-.06c-7.55-4.03-15.3-7.73-23.24-11.09-144.81-61.29-311.89 6.42-373.18 151.24-45.22 106.86-21.08 230.46 61.03 312.45.94.94 1.88 1.87 2.83 2.79l154.94-287.25h-165.4l28.99 48.82c2.18 3.5 2.84 7.73 1.83 11.73a16.2 16.2 0 0 1-15.58 12.14c-5.29.05-10.23-2.65-13.03-7.14l-43.27-72.83a15.146 15.146 0 0 1-2.29-8.2v-.63c.28-8.33 7.06-14.96 15.39-15.04h219.73c3.99 0 8.83 1.44 11.25 3.35l.23.17c7.16 5.13 9.41 14.78 5.25 22.55L343.85 735.02c-.87 1.61-1.99 3.08-3.31 4.35 99.36 75.11 236.02 76.85 337.26 4.3H544.39c-9.76 0-17.67-7.91-17.67-17.67v-.36c0-9.76 7.91-17.67 17.67-17.67H718.7c77.79-82.12 99.66-202.47 55.74-306.71l-.01-.02Z"/>
   </g>
   <defs>
      <clipPath id="a">
         <path fill="#fff" d="M0 0h1024v1024H0z"/>
      </clipPath>
   </defs>
</svg>
